app/images/icons/letter.svg

<svg xmlns="http://www.w3.org/2000/svg" preserveAspectRatio="xMidYMid" width="18" height="12.37"><path d="M17.624 11.999l-.001.002-.002.002a1.307 1.307 0 01-.907.361H1.286c-.354 0-.674-.138-.907-.362l-.002-.001-.001-.002A1.21 1.21 0 010 11.127V1.228C0 .546.577-.009 1.286-.009h15.428c.709 0 1.286.555 1.286 1.237v9.899c0 .34-.144.648-.376.872zM7.536 5.695l-6.073 5.844h15.074l-6.074-5.844-.726.489c-.22.149-.479.223-.737.223-.259 0-.517-.074-.737-.223l-.727-.489zM.863 1.2c-.001.01-.006.018-.006.028v9.728l5.966-5.742L.863 1.2zm.925-.384l6.966 4.692a.445.445 0 00.492 0L16.211.816H1.788zm15.355.412c0-.01-.006-.018-.006-.028l-5.96 4.014 5.966 5.742V1.228z" fill="#436372" fill-rule="evenodd"/></svg>

<svg xmlns="http://www.w3.org/2000/svg" xmlns:xlink="http://www.w3.org/1999/xlink" preserveAspectRatio="xMidYMid" width="18" height="12.37" viewBox="0 0 18 12.37">
  <defs>
    <style>
      .cls-1 {
        fill: #436372;
        fill-rule: evenodd;
      }
    </style>
  </defs>
  <path d="M17.624,11.999 C17.624,11.999 17.624,12.001 17.623,12.001 C17.623,12.002 17.621,12.002 17.621,12.003 C17.388,12.226 17.068,12.364 16.714,12.364 L1.286,12.364 C0.932,12.364 0.612,12.226 0.379,12.002 C0.378,12.002 0.377,12.002 0.377,12.001 C0.376,12.001 0.376,12.000 0.376,11.999 C0.144,11.775 -0.000,11.467 -0.000,11.127 L-0.000,1.228 C-0.000,0.546 0.577,-0.009 1.286,-0.009 L16.714,-0.009 C17.423,-0.009 18.000,0.546 18.000,1.228 L18.000,11.127 C18.000,11.467 17.856,11.775 17.624,11.999 ZM7.536,5.695 L1.463,11.539 L16.537,11.539 L10.463,5.695 L9.737,6.184 C9.517,6.333 9.258,6.407 9.000,6.407 C8.741,6.407 8.483,6.333 8.263,6.184 L7.536,5.695 ZM0.863,1.200 C0.862,1.210 0.857,1.218 0.857,1.228 L0.857,10.956 L6.823,5.214 L0.863,1.200 ZM1.788,0.816 L8.754,5.508 C8.901,5.607 9.099,5.607 9.246,5.508 L16.211,0.816 L1.788,0.816 ZM17.143,1.228 C17.143,1.218 17.137,1.210 17.137,1.200 L11.177,5.214 L17.143,10.956 L17.143,1.228 Z" class="cls-1"/>
</svg>
